X:1
T:Title
%%score ( 1 2 ) { 3 | 4 }
L:1/8
Q:1/4=133
M:3/4
K:G
V:1 treble nm="Grand Piano, Soprano"
V:2 treble 
V:3 bass nm="Choir Pad, Potenza, Allan Sankey 1902"
V:4 bass 
V:1
 D2 [B,D]2 [_B,E]2 | [CF]2 [B,A]2 [DG]2 | [DE]2 [CG]2 [CF]2- | [CF][CE] [CF]4 | D2 [Fc]2 [FB]2 | %5
w: By~Ira~Allan~Sankey,~1902 * *|||||
 [FA]2 [CE]2 [CF]2 | [CA]2 E4- | E2 D4 | [B,D]2 [CE]2 [C^D]2 | [CE]2 [EA]2 [EG]2 | %10
w: |||||
 [CE]2 [B,E]2 [B,D]2- | [B,D][_B,^C] [=B,D]4 | D2 [A,^C]2 [CE]2 | [^CG]2 [CB]2 [CA]2- | %14
w: ||||
 [CA]E [DA]4- | [DA]6 | Bc [Gd]2 [G^c]2 | [Ge]2 [Gd]4 | [DG][FA] [GB]2 [G_B]2 | [Gc]2 [GB]4 | %20
w: ||||||
 [DB]2 [Fd]2 [FA]2 | [=F^G]2 [^FA]2 [FB]2 | [Fc]2 c4- | c2 B4 | [Gd]2 [Ge]2 [Gc]2 | %25
w: |||||
 [Ge]2 [Gd]2 [DB]2 | [Dd]2 [Fc]2 [FA]2- | [FA][Ac] [GB]4 | D2 [CE]2 [EA]2 | [EG]2 [DF]2 [FB]2- | %30
w: |||||
 [FB][FA] G4- | G6 |] %32
w: ||
V:2
 x6 | x6 | x6 | x6 | x6 | x6 | z2 B,4- | B,6 | x6 | x6 | x6 | x6 | x6 | x6 | x6 | x6 | D2 z2 z2 | %17
 x6 | x6 | x6 | x6 | x6 | z2 G4- | G6 | x6 | x6 | x6 | x6 | x6 | x6 | x6 | x6 |] %32
V:3
 D,2 D,2 ^C,2 | ^D,2 =D,2 G,2 | G,2 A,2 A,2- | A,G, A,4 | F,2 A,2 D2 | C2 F,2 A,2 | F,2 G,4- | %7
 G,6 | G,2 G,2 F,2 | G,2 C2 G,2 | G,2 G,2 G,2- | G,E, G,4 | G,2 E,2 E,2 | E,2 G,2 E,2- | %14
 E,G, F,4- | F,6 | G,A, B,2 _B,2 | B,2 B,4 | DD D2 ^C2 | E2 D4 | G,2 A,2 C2 | B,2 C2[K:treble] D2 | %22
 E2 E4- | E2 D4 | B,2 C2 C2 | C2[K:bass] B,2 G,2 | B,2 A,2 D2- | D[K:treble]D D4 | G,2 G,2 C2 | %29
 A,2 A,2 D2- | DC B,4- | B,6 |] %32
V:4
 z2 G,,2 G,,2 | G,,2 G,,2 B,,2 | _B,,2 A,,2 D,2- | D,D, D,4 | D,2 D,2 D,2 | D,2 D,2 D,2 | %6
 D,2 G,,4- | G,,6 | G,,2 C,2 C,2 | C,2 C,2 C,2 | C,2 G,,2 G,,2- | G,,G,, G,,4 | B,,2 A,,2 A,,2 | %13
 A,,2 A,,2 A,,2- | A,,^C, D,4- | D,6 | z2 G,2 G,2 | G,2 G,4 | B,A, G,2 G,2 | G,2 G,4 | z2 D,2 D,2 | %21
 D,2 D,2 D,2 | D,2 G,4- | G,6 | G,2 C,2 E,2 | C,2 G,2 z2 | G,2 D,2 D,2- | D,F, G,4 | %28
 B,,2 C,2 A,,2 | ^C,2 D,2 D,2- | D,D, G,,4- | G,,6 |] %32

